!!!COM:	W.A. Mozart
!!!OTL:	Quartet No.1 in G Major, K. 80, Mvmnt. 3
**kern	**kern	**kern	**kern	**dynam
*part4	*part3	*part2	*part1	*part1
*staff4	*staff3	*staff2	*staff1	*
*I"Cello	*I"Viola	*I"Violin II	*I"Violin I	*
*I'Vc.	*I'Vla.	*I'Vln. II	*I'Vln. I	*
*clefF4	*clefC3	*clefG2	*clefG2	*
*k[f#]	*k[f#]	*k[f#]	*k[f#]	*
*G:	*G:	*G:	*G:	*
*M3/4	*M3/4	*M3/4	*M3/4	*
=1	=1	=1	=1	=1
4G	2.r	4g	2.dd	.
4r	.	4b	.	.
4r	.	4g	.	.
=2	=2	=2	=2	=2
2.r	2.r	4f#	2.ccc	.
.	.	4a	.	.
.	.	4d	.	.
=3	=3	=3	=3	=3
2.r	4r	4g	4bb	.
.	.	.	16qqeee/	.
.	4r	4e	4ddd	.
.	.	.	16qqbb/	.
.	4e	4c	4aa	.
=4	=4	=4	=4	=4
4D'	(2B	2.d	(2gg	.
(4D	.	.	.	.
4C)	4A)	.	4ff#)	.
=5	=5	=5	=5	=5
(4BB	(4d	(4g	(4gg	.
4AA	4f#	4a	4aa	.
4GG)	4g)	4b)	4bb)	.
=6	=6	=6	=6	=6
4FF#'	4a	4cc'	4ccc	.
(4F#	2d	(4a	(4cc	.
4G)	.	4g)	4b)	.
=7	=7	=7	=7	=7
4C	4c	4e	(8aL	.
.	.	.	8bJ)	.
4D	4B	4d	4g	.
4D	4A	4c	4f#	.
=8	=8	=8	=8	=8
4GG	2G	2B	2g	.
4BB	.	.	.	.
4D	4r	4r	4r	.
=9:|!|:	=9:|!|:	=9:|!|:	=9:|!|:	=9:|!|:
(4G	4r	(8bL	(8bbL	.
.	.	8ccJ)	8cccJ)	.
4F#)	(8dL	4a	4aa	.
.	8f#J)	.	.	.
4F#'	4a'	4r	4r	.
=10	=10	=10	=10	=10
(4E	4r	(8gL	(8ggL	.
.	.	8aJ)	8aaJ)	.
4D)	(8AL	4f#	4ff#	.
.	8dJ)	.	.	.
4D'	4f#'	4r	4r	.
=11	=11	=11	=11	=11
2.GG	4r	(4d	(4ee	.
.	4r	4g	4gg	.
.	4g	4b)	4bb)	.
=12	=12	=12	=12	=12
4AA	(2f#	(2d	(2dd	.
(4A	.	.	.	.
4G)	4e)	4c#X)	4cc#X)	.
=13	=13	=13	=13	=13
(4F#	4r	4d	4dd	.
4E	(4c#X	4e	4ee	.
4D)	4d)	4f#	4ff#	.
=14	=14	=14	=14	=14
(4B	(4d	4g	4gg	.
4A	4f#	4a	4aa	.
4G)	4g)	4b	4bb	.
=15	=15	=15	=15	=15
4F#'	4f#	4a	4aa	.
4G'	(8aL	(8f#L	(8ff#L	.
.	8f#J)	8dJ)	8ddJ)	.
4A'	(8gL	(8eL	(8eeL	.
.	8eJ)	8c#XJ)	8cc#XJ)	.
=16	=16	=16	=16	=16
4D	4d	4d	[2.dd	.
4r	4r	4f#	.	.
4r	4r	4a	.	.
=17	=17	=17	=17	=17
2.r	2.r	(2cc	4dd]	.
.	.	.	(4ff#	.
.	.	4b)	4gg	.
=18	=18	=18	=18	=18
2.r	2.r	(2f#	4aa	.
.	.	.	4ccc	.
.	.	4g)	4bb)	.
=19	=19	=19	=19	=19
2.r	4C	4r	4eee	.
.	4c	4a	4ee	.
.	4c#X	4a	4aa	.
=20	=20	=20	=20	=20
2.r	4d	2.a	(2gg	.
.	4A	.	.	.
.	4D	.	4ff#)	.
=21	=21	=21	=21	=21
2.r	2.r	4g	2.dd	.
.	.	4b	.	.
.	.	4g	.	.
=22	=22	=22	=22	=22
2.r	2.r	4f#	2.ccc	.
.	.	4a	.	.
.	.	4d	.	.
=23	=23	=23	=23	=23
2.r	4r	4g	4bb	.
.	.	.	16qqddd/	.
.	4r	4e	4ccc	.
.	.	.	16qqbb/	.
.	4e	4c	4aa	.
=24	=24	=24	=24	=24
4D'	(2B	2.d	(2gg	.
(4D	.	.	.	.
4C)	4A)	.	4ff#)	.
=25	=25	=25	=25	=25
(4BB	(4d	(4g	(4gg	.
4AA	4f#	4a	4aa	.
4GG)	4g)	4b)	4bb)	.
=26	=26	=26	=26	=26
4FF#'	4a'	4cc'	4ccc'	.
(4F#	2d	(4a	(4cc	.
4G)	.	4g)	4b)	.
=27	=27	=27	=27	=27
4C	4r	4e	(8aL	.
.	.	.	8bJ)	.
4D	4d	4B	4g	.
4D	4d	4A	4f#	.
=28	=28	=28	=28	=28
4GG	2d	2B	2g	.
4BB	.	.	.	.
4D	4r	4r	4r	.
=29:|!|:	=29:|!|:	=29:|!|:	=29:|!|:	=29:|!|:
*k[]	*k[]	*k[]	*k[]	*
*C:	*C:	*C:	*C:	*
4c	4e	4g	4g	.
!	!	!	!LO:TX:a:t=Trio.	!
4c	4e	4g	4cc	.
4c	4e	4g	4ee	.
=30	=30	=30	=30	=30
4B	4d	4g	(2gg	.
4B	4d	4g	.	.
4B	4d	4g	8dd)	.
.	.	.	8r	.
=31	=31	=31	=31	=31
4A	4c	4e	4e	.
4A	4c	4e	4a	.
4A	4c	4e	4cc	.
=32	=32	=32	=32	=32
4G	4B	4e	(2ee	.
4G	4B	4e	.	.
4G	4B	4e	8b)	.
.	.	.	8r	.
=33	=33	=33	=33	=33
4F	4A	4c	4c	.
4F	4A	4c	4f	.
4F	4A	4c	4a	.
=34	=34	=34	=34	=34
4E	4G	4c	(8gL	.
.	.	.	8ccJ)	.
4E	4G	4c	4.cc	.
4E	4G	4c	.	.
.	.	.	8ee	.
=35	=35	=35	=35	=35
4F	4F	4c	4a	.
4D	(8aL	8r	(8ffL	.
.	8fJ)	(8a	8ddJ)	.
4G	(8eL	8gL	(8ccL	.
.	8dJ)	8fJ)	8bJ)	.
=36	=36	=36	=36	=36
.	16qqd/	16qqf/	16qqb/	.
4C	2e	2e	2cc	.
4GG	.	.	.	.
4CC	4r	4r	4r	.
=37:|!	=37:|!	=37:|!	=37:|!	=37:|!
2.r	4G 4g	(4.gg	2.r	.
.	4G 4g	.	.	.
.	.	16ff#XLL	.	.
.	.	16eeJJ)	.	.
.	4G 4g	4dd	.	.
=38	=38	=38	=38	=38
2.r	4G 4g	4.ee	(4.gg	.
.	4G 4g	.	.	.
.	.	16ddLL	16ff#XLL	.
.	.	16ccJJ	16eeJJ)	.
.	4G 4g	4b	4dd	.
=39	=39	=39	=39	=39
2.r	4G	4g	4b	.
.	4G	4g	4b	.
.	4G	8aL	8ccL	.
.	.	8f#XJ	8aJ	.
=40	=40	=40	=40	=40
2.r	4G	4g	4b	.
.	4G	4a	4ccT	.
.	4G	4b	4dd	.
=41	=41	=41	=41	=41
4GG	4G 4g	2.r	8GL	.
.	.	.	(8ggJ	f
4r	4r	.	8ff#XL)	.
.	.	.	8eeJ	.
4r	4r	.	8ddL	.
.	.	.	8ccJ	.
=42	=42	=42	=42	=42
4GG	4G 4g	8GL	8bL	.
.	.	(8ggJ	(8eeJ	.
4r	4r	8ff#XL)	8ddL)	.
.	.	8eeJ	8ccJ	.
4r	4r	8ddL	8bL	.
.	.	8ccJ	8aJ	.
=43	=43	=43	=43	=43
4G	4d	8bL	4g	.
.	.	8gJ	.	.
4C	4c	4ee	4A	.
4D	4A	(4d 4cc	(8.ff#XtL	.
.	.	.	32eeLL	.
.	.	.	32ff#JJJ)	.
=44	=44	=44	=44	=44
4GG	4G	4b)	4gg	.
4GG	(8BL	4G	4g	.
.	8dJ)	.	.	.
(8.BtL	(8dL	[4g	4r	.
.	8fJ)	.	.	.
32ALL	.	.	.	.
32BJJJ)	.	.	.	.
=45	=45	=45	=45	=45
4c	4e	4g]	(4g	.
4c	4e	4g	4cc)	.
4c	4e	4g	4ee'	.
=46	=46	=46	=46	=46
4B	4d	4g	(2gg	.
4B	4d	4g	.	.
4B	4d	4g	8dd)	.
.	.	.	8r	.
=47	=47	=47	=47	=47
4A	4c	4e	(4e	.
4A	4c	4e	4a)	.
4A	4c	4e	4cc'	.
=48	=48	=48	=48	=48
4G	4B	4e	(2ee	.
4G	4B	4e	.	.
4G	4B	4e	8cc)	.
.	.	.	8r	.
=49	=49	=49	=49	=49
4F	4A	4c	(4c	.
4F	4A	4c	4f)	.
4F	4A	4c	4a	.
=50	=50	=50	=50	=50
4E	4G	4c	(8gL	.
.	.	.	8ccJ)	.
4E	4G	4c	4.cc	.
4E	4G	4c	.	.
.	.	.	8ee	.
=51	=51	=51	=51	=51
4F	4F	4d	4a	.
4D	8aL	8r	(8ffL	.
.	8fJ	8a	8ddJ)	.
4G	8eL	8gL	(8ccL	.
.	8dJ	8fJ	8bJ)	.
=52	=52	=52	=52	=52
!LO:TX:b:t=Menuetto da capo.	!	!	!	!
.	16qqd/	16qqf/	16qqb/	.
4C	2e	2e	2cc	.
4CC	.	.	.	.
4r	4r	4r	4r	.
=:|!	=:|!	=:|!	=:|!	=:|!
*-	*-	*-	*-	*-
!!!system-decoration: [(s1,s2,s3,s4)]
